build/img/main/facebook.svg

<svg width="86" height="86" viewBox="0 0 86 86" fill="none" xmlns="http://www.w3.org/2000/svg">
<path d="M50.1666 48.3751H59.1249L62.7083 34.0418H50.1666V26.8751C50.1666 23.1843 50.1666 19.7084 57.3333 19.7084H62.7083V7.66842C61.5401 7.51433 57.129 7.16675 52.4707 7.16675C42.7419 7.16675 35.8333 13.1043 35.8333 24.0084V34.0418H25.0833V48.3751H35.8333V78.8334H50.1666V48.3751Z" fill="#3C3C3C"/>
</svg>

<svg width="86" height="86" fill="none" xmlns="http://www.w3.org/2000/svg"><path d="M50.167 48.375h8.958l3.583-14.333H50.167v-7.167c0-3.69 0-7.167 7.166-7.167h5.375V7.668c-1.168-.154-5.579-.501-10.237-.501-9.73 0-16.638 5.937-16.638 16.841v10.034h-10.75v14.333h10.75v30.458h14.334V48.375z" fill="#3C3C3C"/></svg>
